X: 32956
T: President Nixon's
R: hornpipe
M: 4/4
K: Fmajor
(3CDE|FGDF =B,3D|CFAc =B3d|cAFC =B,2D2|C2 [A,4F4] (3DE^F|
GABD ^C3E|DGBd ^c3e|dBGD ^C2E2|FG/F/EF DDCE|
FGDF =B,3D|CFAc =B3d|cAFC =B,2D2|C2 [A,4F4] (3FE_E|
[1DEFD ^C2B2|A2 EF3 (3FED|^CDEF GEFG|F2 [C2F2] F2:|
[2DEFD ^C2A2|G2 F4 (3FE_E|DEFA GCEG|F2{=B}c2 f2 (3A,=B,^C||
DFAd ^c3e|dAFD _EFGB|AFDA, B,2F2|D2A,2 D2 (3CDE|
FGAF G2B2|ABcA B2_d2|cAFD BGEC|D2 (3e'e'e' e'2 (3A,=B,^C|
DFAd ^c3e|dAFD _EFGB|AFDA, B,2F2|D2A,2 D2DF|
_EFGB A=B^ce|edAF cBGE|BAFD B,2F2|D2^C2 =C2 (3CDE|
FGDF =B,3D|(3CDE (3FAc =B3d|cAFC =B,2D2|C2 [A,4F4] (3DE^F|
GABD ^C3E|DGBd ^c3e|dBGD ^C2A2|G2F2 EFDE|
FGAF =B,3D|CFAc =B3d|cAFC =B,2D2|C2 [A,4F4] (3FE_E|
DEFD ^C2A2|G2 F4 (3FE_E|DEFA GCEG|F2{=B}c2 f2 (3FGA||
K:Bb
|:[D3B3]A F2G2|F2 (3ddd [Fd]FGA|B3A/B/ _c3B/c/|d=cc=B c3_B|
AD^FA d2dc|BcAB GAB=B|(3cdc _Bc ABGD|FGAG F^FGA|
B3A G2^F2|=F2 (3ddd [Fd]BA_A|G2Bd g2f2|e2d2 cFGA|
B3c/B/ A2G2|F3=E/F/ _G3F/G/|G^FG_A =A2d2|1 B2 (3fff [Af]FGA:|
[2 B2f2 b2z2|(3bab (3f=ef (3d^cd (3BAB|(^F2F3)=F b2|B,6||

